svgs/kvaesitso.svg

<svg xmlns="http://www.w3.org/2000/svg" viewBox="0 0 192 192"><path fill="none" stroke="#000" stroke-width="8" d="M32.112 114.182c0-5.583 6.439-10.109 14.38-10.109h99.016c7.941 0 14.38 4.526 14.38 10.109V172H32.112Z"/><path fill="none" stroke="#000" stroke-width="6" d="M50.601 67.245h12.325a9.248 9.248 0 0 1 9.245 9.244v3.175a9.248 9.248 0 0 1-9.245 9.244H50.601a9.247 9.247 0 0 1-6.537-2.707 9.247 9.247 0 0 1-2.707-6.537v-3.175c0-2.451.974-4.804 2.707-6.537a9.251 9.251 0 0 1 6.537-2.707m78.473 0h12.325c2.451 0 4.804.975 6.537 2.707a9.247 9.247 0 0 1 2.707 6.537v3.175a9.247 9.247 0 0 1-2.707 6.537 9.247 9.247 0 0 1-6.537 2.707h-12.325a9.247 9.247 0 0 1-9.245-9.244v-3.175a9.248 9.248 0 0 1 9.245-9.244m-39.237 0h12.326a9.248 9.248 0 0 1 9.244 9.244v3.175a9.248 9.248 0 0 1-9.244 9.244H89.837a9.245 9.245 0 0 1-9.244-9.244v-3.175a9.248 9.248 0 0 1 9.244-9.244"/><path fill="none" stroke="#000" stroke-width="6" d="M46.492 60.746h99.016c3.812 0 7.472 1.066 10.168 2.961 2.695 1.895 4.211 4.468 4.211 7.149v14.442c0 2.68-1.516 5.253-4.211 7.148-2.696 1.896-6.356 2.961-10.168 2.961H46.492c-3.812 0-7.472-1.065-10.168-2.961-2.695-1.895-4.212-4.468-4.212-7.148V70.856c0-2.681 1.517-5.254 4.212-7.149 2.696-1.895 6.356-2.961 10.168-2.961"/><path fill="none" stroke="#000" stroke-linecap="round" stroke-linejoin="round" stroke-width="8" d="M96 20c-4.743 0-9.486.794-13.806 2.383l-57.242 21.05c-1.438.529-2.653 1.315-3.522 2.278-.869.963-1.362 2.071-1.43 3.21-.067 1.14.293 2.273 1.045 3.283.752 1.011 1.87 1.865 3.24 2.476s2.945.958 4.566 1.006c1.622.047 3.232-.206 4.67-.735L90.763 33.9c3.289-1.209 7.185-1.209 10.474 0l57.242 21.051c1.438.529 3.048.782 4.67.735 1.621-.048 3.196-.395 4.566-1.006 1.37-.611 2.488-1.465 3.24-2.476.752-1.01 1.112-2.143 1.045-3.283-.068-1.139-.561-2.247-1.43-3.21-.869-.963-2.084-1.749-3.522-2.278l-57.242-21.05C105.486 20.794 100.743 20 96 20Z"/></svg>

<svg
    xmlns="http://www.w3.org/2000/svg"
    viewBox="0 0 192 192"
    id="vector">
    <path
        id="path"
        d="M 32.112 114.182 C 32.112 108.599 38.551 104.073 46.492 104.073 L 145.508 104.073 C 153.449 104.073 159.888 108.599 159.888 114.182 L 159.888 172 L 32.112 172 Z"
        fill="none"
        stroke="#000000"
        stroke-width="8"/>
    <path
        id="path_1"
        d="M 50.601 67.245 L 62.926 67.245 C 65.377 67.245 67.73 68.22 69.463 69.952 C 71.196 71.685 72.171 74.038 72.171 76.489 L 72.171 79.664 C 72.171 82.115 71.196 84.468 69.463 86.201 C 67.73 87.934 65.377 88.908 62.926 88.908 L 50.601 88.908 C 48.15 88.908 45.797 87.934 44.064 86.201 C 42.331 84.468 41.357 82.115 41.357 79.664 L 41.357 76.489 C 41.357 74.038 42.331 71.685 44.064 69.952 C 45.797 68.22 48.15 67.245 50.601 67.245 M 129.074 67.245 L 141.399 67.245 C 143.85 67.245 146.203 68.22 147.936 69.952 C 149.669 71.685 150.643 74.038 150.643 76.489 L 150.643 79.664 C 150.643 82.115 149.669 84.468 147.936 86.201 C 146.203 87.934 143.85 88.908 141.399 88.908 L 129.074 88.908 C 126.623 88.908 124.27 87.934 122.537 86.201 C 120.804 84.468 119.829 82.115 119.829 79.664 L 119.829 76.489 C 119.829 74.038 120.804 71.685 122.537 69.952 C 124.27 68.22 126.623 67.245 129.074 67.245 M 89.837 67.245 L 102.163 67.245 C 104.614 67.245 106.966 68.22 108.699 69.952 C 110.432 71.685 111.407 74.038 111.407 76.489 L 111.407 79.664 C 111.407 82.115 110.432 84.468 108.699 86.201 C 106.966 87.934 104.614 88.908 102.163 88.908 L 89.837 88.908 C 87.386 88.908 85.034 87.934 83.301 86.201 C 81.568 84.468 80.593 82.115 80.593 79.664 L 80.593 76.489 C 80.593 74.038 81.568 71.685 83.301 69.952 C 85.034 68.22 87.386 67.245 89.837 67.245"
        fill="none"
        stroke="#000000"
        stroke-width="6"/>
    <path
        id="path_2"
        d="M 46.492 60.746 L 145.508 60.746 C 149.32 60.746 152.98 61.812 155.676 63.707 C 158.371 65.602 159.887 68.175 159.887 70.856 L 159.887 85.298 C 159.887 87.978 158.371 90.551 155.676 92.446 C 152.98 94.342 149.32 95.407 145.508 95.407 L 46.492 95.407 C 42.68 95.407 39.02 94.342 36.324 92.446 C 33.629 90.551 32.112 87.978 32.112 85.298 L 32.112 70.856 C 32.112 68.175 33.629 65.602 36.324 63.707 C 39.02 61.812 42.68 60.746 46.492 60.746"
        fill="none"
        stroke="#000000"
        stroke-width="6"/>
    <path
        id="path_3"
        d="M 96 20 C 91.257 20 86.514 20.794 82.194 22.383 L 24.952 43.433 C 23.514 43.962 22.299 44.748 21.43 45.711 C 20.561 46.674 20.068 47.782 20 48.921 C 19.933 50.061 20.293 51.194 21.045 52.204 C 21.797 53.215 22.915 54.069 24.285 54.68 C 25.655 55.291 27.23 55.638 28.851 55.686 C 30.473 55.733 32.083 55.48 33.521 54.951 L 90.763 33.9 C 94.052 32.691 97.948 32.691 101.237 33.9 L 158.479 54.951 C 159.917 55.48 161.527 55.733 163.149 55.686 C 164.77 55.638 166.345 55.291 167.715 54.68 C 169.085 54.069 170.203 53.215 170.955 52.204 C 171.707 51.194 172.067 50.061 172 48.921 C 171.932 47.782 171.439 46.674 170.57 45.711 C 169.701 44.748 168.486 43.962 167.048 43.433 L 109.806 22.383 C 105.486 20.794 100.743 20 96 20 Z"
        fill="none"
        stroke="#000000"
        stroke-width="8"
        stroke-linecap="round"
        stroke-linejoin="round"/>
</svg>
